X:8
T:Changing Time or Key Signatures, Guitar Chords
M: 6/8
K: G
 "Em"ABc def |\
M: 9/8
"Am7"A,CC DFF GBB |\M:4/4\"G"a,2b,2"D"c2d2 ||\L:1/4\\K:Bb\"Eb"e4|
K: Gb
M: 6/8
| -"Gb"ede edc | def fed |1 "A"efg "D"gfe | e6 \
:|2 "G"gag "F"f"Em"e"D7"d | "C"c6 |]
